.local/share/icons/Gruvbox-Plus-Dark/status/symbolic/appointment-soon-symbolic.svg

<svg xmlns="http://www.w3.org/2000/svg" width="16" height="16" version="1.1">
 <path style="fill:#ebdbb2" d="M 8,1 A 7,7 0 0 0 1,8 7,7 0 0 0 8,15 7,7 0 0 0 15,8 7,7 0 0 0 8,1 Z M 8,3 A 5,5 0 0 1 13,8 5,5 0 0 1 8,13 5,5 0 0 1 3,8 5,5 0 0 1 8,3 Z"/>
 <path style="fill:#ebdbb2" d="M 10.49,4.9961 A 0.50005,0.50005 0 0 0 10.146,5.1465 L 8,7.293 6.3535,5.6465 A 0.50005,0.50005 0 1 0 5.6465,6.3535 L 7.6465,8.3535 A 0.50005,0.50005 0 0 0 8.3535,8.3535 L 10.854,5.8535 A 0.50005,0.50005 0 0 0 10.49,4.9961 Z"/>
</svg>

<svg width="16" height="16" version="1.1" xmlns="http://www.w3.org/2000/svg">
  <defs>
    <style id="current-color-scheme" type="text/css">.ColorScheme-Text { color:#ebdbb2; } .ColorScheme-Highlight { color:#458588; } .ColorScheme-NeutralText { color:#fe8019; } .ColorScheme-PositiveText { color:#689d6a; } .ColorScheme-NegativeText { color:#fb4934; }</style>
  </defs>
  <path class="ColorScheme-Text" fill="currentColor" d="m8 1a7 7 0 0 0-7 7 7 7 0 0 0 7 7 7 7 0 0 0 7-7 7 7 0 0 0-7-7zm0 2a5 5 0 0 1 5 5 5 5 0 0 1-5 5 5 5 0 0 1-5-5 5 5 0 0 1 5-5zm2.49 1.996a0.5 0.5 0 0 0-0.3438 0.1504l-2.146 2.146-1.646-1.646a0.5 0.5 0 1 0-0.707 0.707l2 2a0.5 0.5 0 0 0 0.707 0l2.5-2.5a0.5 0.5 0 0 0-0.3633-0.8574z"/>
</svg>
